MonoIcons/scalable/status/orientation-landscape-inverse-symbolic.svg

<?xml version="1.0" encoding="UTF-8"?>
<svg height="16px" viewBox="0 0 16 16" width="16px" xmlns="http://www.w3.org/2000/svg">
    <path d="m 2.15625 13.042969 c -0.613281 0 -1.113281 -0.5 -1.113281 -1.113281 v -7.847657 c 0 -0.617187 0.5 -1.113281 1.113281 -1.113281 h 11.738281 c 0.617188 0 1.117188 0.496094 1.117188 1.113281 v 7.847657 c 0 0.613281 -0.5 1.113281 -1.117188 1.113281 z m 5.84375 -3 l 4 -4.042969 h -8 z m 0 0" fill="#2e3436"/>
</svg>

<svg width="16" height="16" viewBox="0 0 16 16" fill="none" xmlns="http://www.w3.org/2000/svg">
<path d="M2.15625 13.043C1.54297 13.043 1.04297 12.543 1.04297 11.9297V4.08203C1.04297 3.46484 1.54297 2.96875 2.15625 2.96875H13.8945C14.5117 2.96875 15.0117 3.46484 15.0117 4.08203V11.9297C15.0117 12.543 14.5117 13.043 13.8945 13.043H2.15625ZM8 10.043L12 6H4L8 10.043Z" fill="#2E3436"/>
</svg>
